T: Castle, The
M: 6/8
L: 1/8
K: Ador
| AGE DBG | A^GA E^DE | - to - | AGE DB,G, | ~A,3 EDB, |c2 c d^cd | e^de gab | - to - | cdc d^cd | ede gab |
